static/images/mobile/copyright/wikipedia-wordmark-or.svg

<?xml version="1.0" encoding="UTF-8"?>
<svg width="120px" height="28px" viewBox="0 0 120 28" version="1.1" xmlns="http://www.w3.org/2000/svg" xmlns:xlink="http://www.w3.org/1999/xlink">
    <title>or-wordmark</title>
    <g id="Page-1" stroke="none" stroke-width="1" fill="none" fill-rule="evenodd">
        <path d="M16.9386256,25.4069252 L12.2941311,22.4301527 C12.8878644,21.6195952 13.430938,20.5952532 13.9243649,19.3611794 C14.5535601,17.7836318 14.8696776,16.3428658 14.8696776,15.036855 C14.8696776,13.086451 14.3205248,11.4906659 13.2272854,10.2434206 C12.0185415,8.87763115 10.353859,8.19372325 8.22411915,8.19372325 C6.85529015,8.19372325 5.64046708,8.53111781 4.58167633,9.20692013 C3.52288558,9.88272246 2.77514628,10.8047316 2.34757719,11.9729476 C2.21991438,12.3387117 2.15608298,12.7926239 2.15608298,13.3306315 C2.15608298,14.4998607 2.39519745,15.3479065 2.88153195,15.8666633 C3.1915702,15.3276425 3.69107627,14.72783 4.37599737,14.0672256 C4.96871755,13.4917298 5.50672509,13.0621343 5.9920464,12.7743864 L7.56655437,13.9871831 C6.71344259,14.5444413 5.97380886,15.2020061 5.35575876,15.9689962 C4.63638897,16.8555435 4.27873046,17.6600218 4.27873046,18.3834444 C4.27873046,19.2284506 4.56951797,19.9295828 5.15311938,20.4838015 C5.73672079,21.042073 6.50168444,21.3196889 7.44902353,21.3196889 C8.47133919,21.3196889 9.26365916,21.0623369 9.83003622,20.5496593 C10.3194103,20.1139847 10.5676436,19.5719243 10.5676436,18.9173991 C10.5676436,17.9254794 10.1299425,17.2922313 9.25251399,17.0247473 L7.04779756,19.1149725 L5.6029788,17.7724866 L11.007371,12.6811723 C11.2626966,12.906102 11.737886,13.3458294 12.4319258,14.0094734 C12.0043567,14.4481876 11.4450721,14.9791028 10.7611642,15.6174169 C12.0033435,16.3459054 12.62342,17.4259733 12.62342,18.8535677 C12.62342,20.1575521 12.1218876,21.2082373 11.1167963,21.9975177 C10.1471668,22.7645077 8.92727779,23.1464829 7.45611591,23.1464829 C5.74887915,23.1464829 4.40031409,22.6510297 3.41346032,21.6560703 C2.52691304,20.7806682 2.084146,19.7198511 2.084146,18.4736189 C2.084146,18.2223461 2.10744953,17.97006 2.15304339,17.7187872 C0.717343398,16.8454115 0,15.4117379 0,13.410674 C0,13.0276856 0.0324223005,12.6345652 0.0962537045,12.237392 C0.362724486,10.5220497 1.28777325,9.09648167 2.87849236,7.95562198 C4.43982877,6.82793384 6.22913448,6.25953038 8.25046227,6.25953038 C10.935434,6.25953038 13.0844246,7.14101168 14.7025001,8.89485549 C16.2182426,10.5413004 16.9801667,12.6072089 16.9801667,15.0935941 C16.9801667,16.2668761 16.7461182,17.5414777 16.2810608,18.9173991 C15.885914,20.0775096 15.4299754,21.0501786 14.9071658,21.8404721 L18.1433167,23.6844905 C17.9254794,24.026951 17.5242534,24.5973809 16.9386256,25.4069252 Z M21.9924517,15.3306821 C22.6125282,14.9162846 23.2630006,14.7055397 23.9357633,14.7055397 C25.0330555,14.7055397 25.8871805,15.1168976 26.5011778,15.9345475 C27.037159,15.1168976 27.9064819,14.7055397 29.1050938,14.7055397 C30.1740166,14.7055397 31.0321943,15.1381747 31.6806403,16.0004053 C32.2561362,16.7673953 32.5448973,17.6812989 32.5448973,18.7532612 C32.5448973,19.8981737 32.2642417,20.8607108 31.6968515,21.6246612 C31.0463791,22.4939841 30.1294359,22.9276324 28.9419691,22.9276324 C27.8365713,22.9276324 27.0098027,22.5183009 26.4626764,21.6895058 C25.9216292,22.5172877 25.0492667,22.9276324 23.8445756,22.9276324 C22.6753464,22.9276324 21.7563768,22.467641 21.0927328,21.5436055 C20.532435,20.779655 20.2578586,19.8850022 20.2578586,18.8687657 C20.2578586,18.2091745 20.4057854,17.5353986 20.707718,16.8555435 C19.5476076,16.1412396 18.9700854,14.9193242 18.9700854,13.1867575 C18.9700854,11.1492186 19.8931077,9.45515337 21.7502976,8.10557512 C23.4230857,6.88467286 25.2914208,6.27574153 27.3553028,6.27574153 C30.1030928,6.27574153 32.3300995,7.11770815 34.0272043,8.80772056 C35.6797285,10.4592315 36.5095367,12.5798526 36.5095367,15.170597 C36.5095367,17.8758327 35.8854074,20.0825755 34.6381621,21.7837331 L37.5105752,23.6551078 L36.4102434,25.1232301 L32.0119557,22.3825325 C32.7900909,21.3744016 33.4091542,20.2406343 33.8752248,18.9923757 C34.3159654,17.8099749 34.5327896,16.7673953 34.5327896,15.8626105 C34.5327896,13.5940627 33.9441222,11.7591631 32.7667874,10.3599382 C31.4881329,8.82899769 29.6826161,8.06302085 27.3553028,8.06302085 C25.79194,8.06302085 24.3724512,8.56354011 23.0927835,9.56153905 C21.7563768,10.5980395 21.0917196,11.8027306 21.0917196,13.1857443 C21.0876669,14.3124193 21.3906127,15.0287495 21.9924517,15.3306821 Z M23.9519745,16.5465184 C23.4484156,16.5465184 23.0238861,16.811976 22.6773728,17.3449176 C22.3764533,17.8251729 22.2244738,18.3429165 22.2244738,18.8991616 C22.2244738,19.5111325 22.3744269,20.0390081 22.6672408,20.4827883 C22.9772791,20.9529117 23.3663467,21.1879734 23.8324172,21.1879734 C24.3977811,21.1879734 24.8273766,20.9316345 25.1212037,20.4169305 C25.3755161,19.9792295 25.5031789,19.4554067 25.5031789,18.8312774 C25.5031789,18.2213329 25.3663973,17.6975101 25.0938474,17.249677 C24.7878619,16.7836065 24.4109527,16.5465184 23.9519745,16.5465184 Z M29.0767243,16.492819 C28.5650599,16.492819 28.1618075,16.7066035 27.8588617,17.1301198 C27.5559158,17.5505965 27.4079891,18.1048152 27.4079891,18.7856835 C27.4079891,19.3692849 27.5265331,19.8829758 27.7646344,20.3297956 C28.0574483,20.8718559 28.4607006,21.1403531 28.9713519,21.1403531 C29.97543,21.1403531 30.480002,20.3632311 30.480002,18.8120266 C30.480002,18.2618607 30.3837483,17.7765394 30.1922541,17.3601155 C29.9399681,16.7836065 29.5711644,16.492819 29.0767243,16.492819 Z M54.9466805,18.2963094 L53.0408572,17.5110818 C53.6619469,16.734973 53.9719851,15.7481193 53.9719851,14.5505205 C53.9719851,12.7308189 53.3569746,11.2120368 52.1229008,9.99620051 C50.8533651,8.74996834 49.2109729,8.12887864 47.2028167,8.12887864 C45.4124978,8.12887864 43.8916893,8.68005775 42.6403911,9.77937638 C41.3860533,10.878695 40.8125839,12.1401251 40.9128904,13.5565744 C40.977735,14.4461613 41.3434991,14.9861952 42.0101826,15.1888346 C42.7589351,14.5799032 43.6718255,14.2729046 44.7518934,14.2729046 C45.923149,14.2729046 46.8086831,14.6447478 47.4115352,15.386408 C47.9231997,14.645761 48.732744,14.2729046 49.8361154,14.2729046 C50.7034119,14.2729046 51.4075838,14.5343094 51.9455913,15.0459738 C52.4866385,15.5586514 52.7541224,16.2233086 52.7541224,17.0429849 L52.7541224,23.059348 L50.7824413,23.059348 L50.7824413,17.388485 C50.7824413,16.5049773 50.4197168,16.0652499 49.6922414,16.0652499 C48.8735784,16.0652499 48.4672864,16.5941387 48.4672864,17.655969 L48.4672864,23.1373642 L46.437853,23.1373642 L46.437853,21.0613237 C45.8816079,21.3683224 45.2220168,21.505104 44.4611059,21.4797741 C43.3709061,21.4463386 42.4944907,21.0795613 41.8379392,20.3966666 C41.1773348,19.7087059 40.8480458,18.8758581 40.8480458,17.8879911 C40.8480458,17.6549558 40.9118772,17.2760202 41.03954,16.7572634 C39.7872287,16.3611034 39.0546873,15.4249094 38.8348236,13.93551 C38.7983485,13.6913296 38.7790977,13.4512019 38.7790977,13.2181666 C38.7790977,11.3913726 39.6372755,9.77633679 41.3556574,8.3710327 C43.072013,6.96471542 45.017351,6.26256997 47.1916715,6.26256997 C49.7884951,6.26256997 51.9445781,7.05792953 53.6741052,8.64459586 C55.3995795,10.2332886 56.2233086,12.2120621 56.1412396,14.5768636 C56.091593,15.9862205 55.695433,17.2243471 54.9466805,18.2963094 Z M44.6546265,16.0642367 C44.1419489,16.0642367 43.7265382,16.235467 43.4083943,16.5769143 C43.0882241,16.9203881 42.9291522,17.3378252 42.9291522,17.8332785 C42.9291522,18.3682464 43.0902505,18.8069607 43.4195395,19.1453684 C43.7579473,19.5101193 44.2230046,19.6935079 44.816738,19.6935079 C45.3010461,19.6935079 45.6972061,19.5141721 46.0082576,19.1575268 C46.309177,18.8282378 46.4611566,18.4391702 46.4611566,17.9882976 C46.4611566,17.4077358 46.2990451,16.9416652 45.9738089,16.5890727 C45.6526254,16.2395197 45.2118848,16.0642367 44.6546265,16.0642367 Z M53.6943692,4.72149751 C53.3741989,3.91195319 52.6305124,3.19967578 51.4582436,2.58263887 C50.2636845,1.93723245 49.0164391,1.61402264 47.7175207,1.61402264 C46.3395729,1.61402264 45.0730768,1.89974417 43.9241116,2.47220041 C42.7721067,3.04263026 41.9362193,3.80556752 41.4154361,4.76101218 L38.9077738,4.90387295 C39.6494339,3.36381367 40.8835077,2.14797741 42.6079688,1.25129816 C44.1966615,0.418450315 45.8968059,1.77635684e-15 47.7053623,1.77635684e-15 C49.4419818,1.77635684e-15 51.0722156,0.415410725 52.5991033,1.25129816 C54.2151524,2.1489906 55.3539857,3.34051014 56.0095241,4.82788318 L53.6943692,4.72149751 Z M73.2825046,4.72149751 C72.9633476,3.91195319 72.2176347,3.19967578 71.0463791,2.58263887 C69.8497936,1.93723245 68.6025482,1.61402264 67.3066694,1.61402264 C65.930748,1.61402264 64.6632387,1.89974417 63.5112338,2.47220041 C62.3582158,3.04263026 61.5263811,3.80556752 61.0066111,4.76101218 L58.494896,4.90387295 C59.2355429,3.36381367 60.47063,2.14797741 62.1950911,1.25129816 C63.784797,0.418450315 65.4869678,1.77635684e-15 67.2914714,1.77635684e-15 C69.0280909,1.77635684e-15 70.6583247,0.415410725 72.183186,1.25129816 C73.8022746,2.1489906 74.9370551,3.34051014 75.5956331,4.82788318 L73.2825046,4.72149751 Z M93.1776387,4.72149751 C92.8594949,3.91195319 92.113782,3.19967578 90.945566,2.58263887 C89.7489805,1.93723245 88.4997087,1.61402264 87.2048431,1.61402264 C85.8228425,1.61402264 84.5634388,1.89974417 83.4114339,2.47220041 C82.2574027,3.04263026 81.4215152,3.80556752 80.8997188,4.76101218 L78.3940829,4.90387295 C79.1327035,3.36381367 80.3677905,2.14797741 82.0932648,1.25129816 C83.6819575,0.418450315 85.3831151,1.77635684e-15 87.1896451,1.77635684e-15 C88.9252514,1.77635684e-15 90.5575116,0.415410725 92.0803465,1.25129816 C93.6994351,2.1489906 94.8332025,3.34051014 95.49482,4.82788318 L93.1776387,4.72149751 Z M72.6705337,23.2285519 L72.6705337,21.5040908 C71.2449657,22.5152613 69.3614327,23.0167937 67.0199346,23.0167937 C65.4849414,23.0167937 64.1373895,22.7097951 62.9863978,22.1028901 C61.5598166,21.3470453 60.846526,20.2679906 60.846526,18.8687657 C60.846526,18.2304516 61.0714557,17.661035 61.5172623,17.1574761 C59.8819626,16.3671826 59.0663391,15.0054459 59.0663391,13.0722663 C59.0663391,11.0549913 59.9761899,9.38524279 61.7918387,8.06099445 C63.502115,6.82793384 65.4748094,6.22710808 67.7149877,6.26054358 C69.6876821,6.30208465 71.3412194,6.86542212 72.6735733,7.94346361 L72.6735733,6.26054358 L75.0322957,6.26054358 L75.0322957,23.2285519 L72.6715469,23.2285519 L72.6715469,23.2285519 L72.6705337,23.2285519 Z M72.7688138,11.207984 C72.3746802,10.2099851 71.5762811,9.43387624 70.3675372,8.88371033 C69.4019605,8.45208845 68.3857241,8.23222473 67.3107222,8.23222473 C65.7230426,8.23222473 64.3126726,8.72159882 63.0765724,9.69224144 C61.8455381,10.6699764 61.2264748,11.8007042 61.2264748,13.0874642 C61.2264748,13.7652929 61.4453254,14.3661187 61.8850528,14.8909547 C62.2680412,15.361078 62.6895311,15.6295752 63.1464829,15.700499 C64.5700246,15.0642114 66.306644,14.6731174 68.3522886,14.5231642 L69.0250513,16.5992046 C68.7940424,16.5769143 68.5539147,16.5617164 68.2996023,16.5617164 C67.0726209,16.5617164 65.935814,16.7906989 64.8881684,17.2415715 C63.7341371,17.7289192 63.1596545,18.3267053 63.1596545,19.0399959 C63.1596545,19.6235974 63.5112338,20.1301958 64.2143925,20.5678969 C64.9712505,21.0359938 65.9337876,21.2710555 67.0928848,21.2710555 C68.323919,21.2710555 69.5205046,20.9670964 70.6816282,20.3561387 C71.9704147,19.688442 72.6634413,18.8920692 72.7667874,17.9690468 L72.7688138,11.207984 L72.7688138,11.207984 Z M94.72783,17.7978166 C94.2617594,17.6346919 93.5565744,17.4077358 92.6173409,17.1220142 C93.1219129,16.3459054 93.3731857,15.2222701 93.3731857,13.7531346 C93.3731857,12.1178348 92.7328453,10.7571114 91.4572304,9.6750171 C90.1876947,8.59292282 88.6071076,8.04984929 86.7245878,8.04984929 C85.4935535,8.04984929 84.3091264,8.4044682 83.1814382,9.10762684 C82.0537501,9.81281187 81.2877732,10.6618709 80.8845209,11.6517642 C80.6555384,12.2201677 80.5430735,12.7835052 80.5430735,13.3478558 C80.5430735,14.4643988 80.972669,15.2658375 81.8308468,15.7511588 C82.5410978,14.6569062 83.6211657,13.6204058 85.0507865,12.6446972 L86.6698751,13.9790775 C84.3091264,15.3945135 83.1317916,16.9609159 83.1317916,18.6752451 C83.1317916,19.4402087 83.4489222,20.0876415 84.0771043,20.6074115 C84.6850224,21.1150232 85.3962866,21.3652828 86.2190025,21.3652828 C87.2291598,21.3652828 88.0468097,21.1231288 88.6648598,20.635781 C89.2818967,20.1453938 89.5878822,19.4908686 89.5878822,18.6630867 C89.5878822,17.8312521 89.1846298,17.2050964 88.3831911,16.7977912 L86.1470655,18.8059475 L84.6596925,17.3793662 L90.5038122,12.2292865 L91.9455913,13.4967958 L89.8624585,15.3337217 C90.3984397,15.6842878 90.8381671,16.1645432 91.1775881,16.7795537 C91.5159958,17.393551 91.6831733,17.9862712 91.6831733,18.5597406 C91.6831733,20.0673776 91.1522582,21.2366068 90.0843486,22.071481 C89.0853365,22.8455635 87.7793257,23.2336179 86.1612503,23.2336179 C84.693128,23.2336179 83.4550014,22.8060488 82.4509233,21.9539502 C81.4012513,21.0552446 80.9078244,19.9376884 80.982801,18.5972289 L81.0405532,17.5131082 C80.1884546,17.1655817 79.5268371,16.5880595 79.0526609,15.777502 C78.6058411,15.0125383 78.3819246,14.1553737 78.3819246,13.2060083 C78.3819246,12.432939 78.5339041,11.6943185 78.8490083,10.9881203 C79.4660452,9.55343347 80.5268624,8.38724385 82.0263938,7.48853821 C83.4853973,6.60401733 85.0588921,6.15922389 86.7367461,6.15922389 C89.195775,6.15922389 91.2626966,6.86238253 92.9304187,8.27072621 C94.6518402,9.72770334 95.5069901,11.5696953 95.5069901,13.8048076 C95.5090048,15.1118316 95.2486132,16.4421591 94.72783,17.7978166 Z M86.9221611,27.5234935 C86.376048,27.5234935 85.9079511,27.3644216 85.5128043,27.0381722 C85.1146179,26.7190152 84.9200841,26.3279212 84.9200841,25.868943 C84.9200841,25.3826085 85.1115783,24.9742901 85.4955799,24.638922 C85.8785684,24.304567 86.3527445,24.1384027 86.921148,24.1384027 C87.4956306,24.1384027 87.9809519,24.304567 88.3740723,24.638922 C88.7742851,24.9742901 88.9678057,25.3836217 88.9678057,25.868943 C88.9678057,26.373515 88.7550343,26.7787938 88.3335444,27.0908584 C87.9414372,27.3806327 87.4692875,27.5234935 86.9221611,27.5234935 Z M100.93974,9.76012564 C101.046126,9.73580891 101.178855,9.72365055 101.33894,9.72365055 C101.712809,9.72365055 102.038046,9.84928696 102.311609,10.0995466 C102.584159,10.3518326 102.722967,10.6324882 102.722967,10.9465792 C102.722967,11.1998784 102.624687,11.4237949 102.434206,11.6132627 C102.03298,12.0185415 101.56083,12.2252337 101.020796,12.2252337 C100.590187,12.2252337 100.193014,12.0955445 99.8211707,11.8351529 C99.4543935,11.5707085 99.2213582,11.269789 99.1281441,10.9222625 C99.0207452,10.5250893 98.962993,10.1360217 98.962993,9.74695408 C98.962993,8.77023228 99.272018,7.97385952 99.8809494,7.34263786 C100.557765,6.65670356 101.494972,6.31019023 102.690544,6.31019023 C103.099876,6.31019023 103.524405,6.41252311 103.965146,6.61516249 C104.431217,6.8400922 104.782796,7.11466856 105.017858,7.44598394 C105.578155,6.62529446 106.46065,6.2220421 107.678513,6.2220421 C108.654221,6.2220421 109.498214,6.56551584 110.210492,7.24942374 C110.925809,7.93738443 111.28448,8.73173079 111.28448,9.63955521 C111.28448,12.1664682 109.765698,13.7956888 106.727121,14.5282302 C105.19922,14.8919679 104.094835,15.2313888 103.421059,15.5424403 C102.157603,16.1250285 101.524355,16.8464247 101.524355,17.7096684 C101.524355,18.7887231 102.061349,19.6428481 103.131285,20.2791357 C104.089769,20.8424732 105.236708,21.1271815 106.560956,21.1271815 C108.108108,21.1271815 109.55698,20.5496593 110.909598,19.3895489 C112.22878,18.2486892 112.885331,17.0733808 112.885331,15.8666633 L112.885331,6.26054358 L115.104233,6.26054358 L115.104233,22.8759594 L112.885331,22.8759594 L112.885331,20.1453938 C112.266268,21.0674029 111.350338,21.7928519 110.144634,22.3136351 C108.984523,22.8080752 107.710935,23.0552952 106.322855,23.0552952 C104.504167,23.0552952 102.905342,22.5699739 101.525368,21.5973049 C100.066364,20.5709364 99.3358494,19.2963348 99.3358494,17.7765394 C99.3358494,16.2709288 100.148433,15.0935941 101.770562,14.2435219 C102.368348,13.9415892 103.873958,13.4329644 106.295499,12.7328453 C108.178019,12.1968642 109.121305,11.1796145 109.121305,9.69021505 C109.121305,9.27885711 108.969325,8.89080271 108.667393,8.53719699 C108.3685,8.18561767 108.008815,8.00932141 107.585299,8.00932141 C107.204336,8.00932141 106.848704,8.12685225 106.530561,8.36191393 C106.21039,8.59494921 106.051318,8.87661795 106.051318,9.20489374 L106.051318,11.3650295 L103.940829,11.3650295 L103.940829,9.14308873 C103.940829,8.88877631 103.809114,8.65270144 103.544669,8.43385091 C103.275159,8.21297399 102.947896,8.10253553 102.555789,8.10253553 C101.994478,8.10253553 101.563869,8.30213531 101.254844,8.71146686 C100.991413,9.056967 100.886041,9.40651992 100.93974,9.76012564 Z M117.741584,22.8232731 L117.741584,6.26155678 L120,6.26155678 L120,22.8232731 L117.741584,22.8232731 Z" id="or-wordmark" fill="#000000" fill-rule="nonzero"></path>
    </g>
</svg>

<svg xmlns="http://www.w3.org/2000/svg" width="120" height="28"><path fill="#000" fill-rule="nonzero" d="m16.939 25.407-4.645-2.977c.594-.81 1.137-1.835 1.63-3.069.63-1.577.946-3.018.946-4.324 0-1.95-.55-3.546-1.643-4.794-1.208-1.365-2.873-2.05-5.003-2.05-1.369 0-2.584.338-3.642 1.014a5.415 5.415 0 0 0-2.234 2.766c-.128.366-.192.82-.192 1.358 0 1.169.24 2.017.726 2.536.31-.54.81-1.14 1.494-1.8.593-.575 1.13-1.005 1.616-1.293l1.575 1.213a9.444 9.444 0 0 0-2.211 1.982c-.72.887-1.077 1.691-1.077 2.414 0 .845.29 1.547.874 2.1.584.56 1.349.837 2.296.837 1.022 0 1.815-.258 2.381-.77.49-.436.738-.978.738-1.633 0-.992-.438-1.625-1.315-1.892l-2.205 2.09-1.445-1.343 5.404-5.09c.256.224.73.664 1.425 1.327-.428.44-.987.97-1.67 1.608 1.241.729 1.861 1.809 1.861 3.237 0 1.304-.501 2.354-1.506 3.144-.97.767-2.19 1.148-3.66 1.148-1.708 0-3.057-.495-4.044-1.49-.886-.875-1.329-1.936-1.329-3.182 0-.252.023-.504.069-.755C.717 16.845 0 15.412 0 13.41c0-.383.032-.776.096-1.174.267-1.715 1.192-3.14 2.782-4.281C4.44 6.828 6.23 6.26 8.25 6.26c2.685 0 4.834.881 6.453 2.635 1.515 1.646 2.277 3.712 2.277 6.199 0 1.173-.234 2.447-.699 3.823-.395 1.16-.851 2.133-1.374 2.923l3.236 1.844c-.218.343-.619.913-1.204 1.723Zm5.053-10.076c.62-.415 1.271-.625 1.944-.625 1.097 0 1.951.41 2.565 1.229.536-.818 1.405-1.23 2.604-1.23 1.069 0 1.927.433 2.576 1.295.575.767.864 1.681.864 2.753 0 1.145-.28 2.108-.848 2.872-.65.869-1.568 1.303-2.755 1.303-1.105 0-1.932-.41-2.48-1.238-.54.827-1.413 1.238-2.617 1.238-1.17 0-2.089-.46-2.752-1.384-.56-.764-.835-1.659-.835-2.675 0-.66.148-1.334.45-2.013-1.16-.715-1.738-1.937-1.738-3.67 0-2.037.923-3.73 2.78-5.08 1.673-1.221 3.541-1.83 5.605-1.83 2.748 0 4.975.842 6.672 2.532 1.653 1.651 2.483 3.772 2.483 6.363 0 2.705-.625 4.912-1.872 6.613l2.873 1.871-1.1 1.468-4.399-2.74a12.89 12.89 0 0 0 1.863-3.39c.441-1.183.658-2.226.658-3.13 0-2.269-.589-4.104-1.766-5.503-1.279-1.531-3.084-2.297-5.412-2.297-1.563 0-2.983.5-4.262 1.499-1.337 1.036-2.001 2.24-2.001 3.624-.004 1.126.299 1.843.9 2.145Zm1.96 1.216c-.504 0-.928.265-1.275.798-.3.48-.453.998-.453 1.554 0 .612.15 1.14.443 1.584.31.47.7.705 1.165.705.566 0 .995-.256 1.29-.771.254-.438.381-.962.381-1.586 0-.61-.137-1.133-.41-1.581-.305-.466-.682-.703-1.141-.703Zm5.125-.054c-.512 0-.915.214-1.218.637-.303.42-.451.975-.451 1.656 0 .583.119 1.097.357 1.544.292.542.696.81 1.206.81 1.004 0 1.509-.777 1.509-2.328 0-.55-.096-1.035-.288-1.452-.252-.576-.62-.867-1.115-.867Zm25.87 1.803-1.906-.785c.62-.776.931-1.763.931-2.96 0-1.82-.615-3.339-1.85-4.555-1.269-1.246-2.911-1.867-4.92-1.867-1.79 0-3.31.551-4.562 1.65-1.254 1.1-1.827 2.361-1.727 3.778.065.89.43 1.43 1.097 1.632.749-.61 1.662-.916 2.742-.916 1.171 0 2.057.372 2.66 1.113.511-.74 1.32-1.113 2.424-1.113.867 0 1.572.261 2.11.773.54.513.808 1.177.808 1.997v6.016h-1.972v-5.67c0-.884-.362-1.324-1.09-1.324-.818 0-1.225.53-1.225 1.591v5.481h-2.03v-2.076c-.555.307-1.215.444-1.976.419-1.09-.034-1.967-.4-2.623-1.083-.66-.688-.99-1.521-.99-2.509 0-.233.064-.612.192-1.13-1.253-.397-1.985-1.333-2.205-2.822a4.866 4.866 0 0 1-.056-.718c0-1.827.858-3.442 2.577-4.847 1.716-1.406 3.661-2.108 5.836-2.108 2.596 0 4.753.795 6.482 2.382 1.726 1.588 2.55 3.567 2.467 5.932-.05 1.41-.446 2.647-1.194 3.72Zm-10.292-2.232c-.513 0-.928.171-1.247.513-.32.343-.479.76-.479 1.256 0 .535.161.974.49 1.312.339.365.804.549 1.398.549.484 0 .88-.18 1.191-.536.301-.33.453-.719.453-1.17 0-.58-.162-1.046-.487-1.399-.321-.35-.762-.525-1.32-.525Zm9.04-11.343c-.32-.809-1.064-1.521-2.237-2.138-1.194-.646-2.442-.969-3.74-.969-1.378 0-2.645.286-3.794.858-1.152.57-1.988 1.334-2.509 2.289l-2.507.143c.741-1.54 1.976-2.756 3.7-3.653A10.824 10.824 0 0 1 47.705 0c1.737 0 3.367.415 4.894 1.251 1.616.898 2.755 2.09 3.41 3.577l-2.315-.107Zm19.588 0c-.32-.809-1.065-1.521-2.237-2.138-1.196-.646-2.443-.969-3.74-.969-1.375 0-2.643.286-3.795.858-1.153.57-1.985 1.334-2.504 2.289l-2.512.143c.74-1.54 1.976-2.756 3.7-3.653A10.835 10.835 0 0 1 67.291 0c1.737 0 3.367.415 4.892 1.251 1.62.898 2.754 2.09 3.413 3.577l-2.313-.107Zm19.895 0c-.319-.809-1.064-1.521-2.232-2.138-1.197-.646-2.446-.969-3.741-.969-1.382 0-2.642.286-3.794.858-1.154.57-1.99 1.334-2.511 2.289l-2.506.143c.739-1.54 1.974-2.756 3.7-3.653A10.826 10.826 0 0 1 87.19 0c1.735 0 3.368.415 4.89 1.251 1.62.898 2.753 2.09 3.415 3.577l-2.317-.107ZM72.67 23.23v-1.725c-1.426 1.011-3.31 1.513-5.651 1.513-1.535 0-2.883-.307-4.034-.914-1.426-.756-2.14-1.835-2.14-3.234 0-.639.225-1.208.671-1.712-1.635-.79-2.45-2.152-2.45-4.085 0-2.017.91-3.687 2.725-5.011 1.71-1.233 3.683-1.834 5.923-1.8 1.973.041 3.626.604 4.959 1.682V6.261h2.358v16.968H72.671Zm.098-12.021c-.394-.998-1.193-1.774-2.401-2.324a7.401 7.401 0 0 0-3.057-.652c-1.588 0-2.998.49-4.234 1.46-1.231.978-1.85 2.109-1.85 3.395 0 .678.218 1.28.658 1.804.383.47.805.739 1.261.81 1.424-.637 3.16-1.028 5.206-1.178l.673 2.076a7.497 7.497 0 0 0-.725-.037c-1.227 0-2.364.229-3.412.68-1.154.487-1.728 1.085-1.728 1.798 0 .584.351 1.09 1.054 1.528.757.468 1.72.703 2.879.703 1.23 0 2.428-.304 3.589-.915 1.288-.668 1.981-1.464 2.085-2.387l.002-6.761Zm21.959 6.59a57.828 57.828 0 0 0-2.11-.676c.504-.776.755-1.9.755-3.369 0-1.635-.64-2.996-1.916-4.078-1.27-1.082-2.85-1.625-4.732-1.625-1.231 0-2.416.354-3.544 1.058-1.127.705-1.893 1.554-2.296 2.544a4.5 4.5 0 0 0-.342 1.696c0 1.116.43 1.918 1.288 2.403.71-1.094 1.79-2.13 3.22-3.106l1.619 1.334c-2.36 1.416-3.538 2.982-3.538 4.696 0 .765.317 1.413.945 1.932.608.508 1.32.758 2.142.758 1.01 0 1.828-.242 2.446-.73.617-.49.923-1.144.923-1.972 0-.832-.403-1.458-1.205-1.865l-2.236 2.008-1.487-1.427 5.844-5.15 1.442 1.268-2.084 1.837c.536.35.976.83 1.316 1.446.338.614.505 1.206.505 1.78 0 1.507-.53 2.677-1.599 3.511-.999.775-2.305 1.163-3.923 1.163-1.468 0-2.706-.428-3.71-1.28-1.05-.899-1.543-2.016-1.468-3.357l.058-1.084a3.998 3.998 0 0 1-1.988-1.735c-.447-.765-.671-1.623-.671-2.572 0-.773.152-1.512.467-2.218.617-1.435 1.678-2.6 3.177-3.5a8.938 8.938 0 0 1 4.71-1.329c2.46 0 4.527.703 6.194 2.112 1.722 1.457 2.577 3.299 2.577 5.534.002 1.307-.258 2.637-.78 3.993Zm-7.806 9.725c-.546 0-1.014-.159-1.41-.485-.397-.319-.592-.71-.592-1.17 0-.485.192-.894.576-1.23.383-.333.857-.5 1.425-.5.575 0 1.06.167 1.453.5.4.336.594.746.594 1.23 0 .506-.213.91-.634 1.223-.393.29-.865.432-1.412.432ZM100.94 9.76a1.83 1.83 0 0 1 .399-.036c.374 0 .699.125.973.376.272.252.411.532.411.847a.916.916 0 0 1-.289.666c-.401.406-.873.612-1.413.612-.43 0-.828-.13-1.2-.39-.367-.264-.6-.565-.693-.913a4.481 4.481 0 0 1-.165-1.175c0-.977.309-1.773.918-2.404.677-.686 1.614-1.033 2.81-1.033.409 0 .833.103 1.274.305.466.225.818.5 1.053.831.56-.82 1.443-1.224 2.66-1.224.976 0 1.82.344 2.532 1.027.716.688 1.074 1.483 1.074 2.39 0 2.527-1.518 4.157-4.557 4.89-1.528.363-2.632.702-3.306 1.013-1.263.583-1.897 1.304-1.897 2.168 0 1.079.537 1.933 1.607 2.57.959.562 2.106.847 3.43.847 1.547 0 2.996-.577 4.349-1.737 1.319-1.141 1.975-2.317 1.975-3.523V6.26h2.22v16.615h-2.22v-2.73c-.619.921-1.535 1.647-2.74 2.168-1.16.494-2.434.741-3.822.741-1.819 0-3.418-.485-4.798-1.458-1.459-1.026-2.19-2.3-2.19-3.82 0-1.506.813-2.683 2.436-3.533.597-.302 2.103-.811 4.524-1.511 1.883-.536 2.826-1.553 2.826-3.043 0-.411-.152-.8-.454-1.153-.299-.351-.658-.528-1.082-.528-.38 0-.736.118-1.054.353-.32.233-.48.515-.48.843v2.16h-2.11V9.143c0-.254-.132-.49-.396-.71-.27-.22-.597-.33-.99-.33-.56 0-.991.2-1.3.608-.264.346-.369.696-.315 1.05Zm16.802 13.063V6.262H120v16.561h-2.258Z"/></svg>
